webapp/src/assets/icons/cloudproviders/aws/database/rds_instance.svg

<?xml version="1.0" encoding="UTF-8"?>
<svg width="48px" height="48px" viewBox="0 0 48 48" version="1.1" xmlns="http://www.w3.org/2000/svg" xmlns:xlink="http://www.w3.org/1999/xlink">
    <title>Icon-Resource/Database/Res_Amazon-Aurora_Amazon-RDS-Instance_48</title>
    <g id="Icon-Resource/Database/Res_Amazon-Aurora_Amazon-RDS-Instance_48" stroke="none" stroke-width="1" fill="none" fill-rule="evenodd">
        <path d="M21.2395,25.3828 C20.9905,25.3828 20.6895,25.3468 20.3375,25.2758 C19.9865,25.2028 19.6705,25.1138 19.3905,25.0088 L19.3905,26.1988 C19.6325,26.3358 19.9305,26.4448 20.2865,26.5288 C20.6415,26.6118 20.9975,26.6538 21.3525,26.6538 C22.1705,26.6538 22.8105,26.4438 23.2755,26.0238 C23.7415,25.6048 23.9735,25.0348 23.9735,24.3168 C23.9735,23.9458 23.9185,23.6298 23.8095,23.3688 C23.6995,23.1088 23.5295,22.8718 23.2995,22.6598 C23.0675,22.4478 22.7565,22.2368 22.3625,22.0248 L21.7505,21.6948 C21.4175,21.5148 21.1925,21.3478 21.0745,21.1958 C20.9585,21.0448 20.8985,20.8518 20.8985,20.6168 C20.8985,20.3378 20.9905,20.1178 21.1725,19.9598 C21.3525,19.8008 21.6025,19.7208 21.9205,19.7208 C22.3885,19.7208 22.9295,19.8338 23.5435,20.0618 L23.5435,18.8598 C22.9535,18.5868 22.3585,18.4498 21.7615,18.4498 C21.2855,18.4498 20.8635,18.5428 20.4965,18.7288 C20.1295,18.9138 19.8405,19.1788 19.6285,19.5228 C19.4175,19.8668 19.3105,20.2698 19.3105,20.7308 C19.3105,21.2308 19.4305,21.6538 19.6735,22.0018 C19.9155,22.3498 20.3165,22.6748 20.8775,22.9778 L21.4885,23.3068 C21.7995,23.4728 22.0205,23.6378 22.1525,23.7998 C22.2845,23.9628 22.3505,24.1608 22.3505,24.3958 C22.3505,24.7138 22.2575,24.9568 22.0675,25.1268 C21.8785,25.2978 21.6025,25.3828 21.2395,25.3828 L21.2395,25.3828 Z M16.7695,22.4328 C16.7695,21.5408 16.6505,20.8848 16.4115,20.4638 C16.1745,20.0448 15.8015,19.8338 15.2945,19.8338 L14.6355,19.8338 L14.6355,25.2698 L15.3045,25.2698 C15.7975,25.2698 16.1635,25.0558 16.4065,24.6288 C16.6475,24.1998 16.7695,23.5438 16.7695,22.6598 L16.7695,22.4328 Z M17.6425,19.6188 C18.1495,20.2848 18.4025,21.2598 18.4025,22.5458 C18.4025,23.8398 18.1535,24.8198 17.6545,25.4858 C17.1545,26.1508 16.4285,26.4838 15.4755,26.4838 L13.0485,26.4838 L13.0485,18.6208 L15.4195,18.6208 C16.3945,18.6208 17.1355,18.9538 17.6425,19.6188 L17.6425,19.6188 Z M10.2005,21.0938 C10.2005,20.6708 10.1225,20.3498 9.9685,20.1298 C9.8125,19.9098 9.5875,19.8008 9.2925,19.8008 L8.5545,19.8008 L8.5545,22.3878 L9.2925,22.3878 C9.5875,22.3878 9.8125,22.2788 9.9685,22.0588 C10.1225,21.8388 10.2005,21.5178 10.2005,21.0938 L10.2005,21.0938 Z M10.5865,23.3298 L12.1745,26.4838 L10.5415,26.4838 L9.1685,23.5678 L8.5545,23.5678 L8.5545,26.4838 L7.0015,26.4838 L7.0015,18.6208 L9.4855,18.6208 C10.1815,18.6208 10.7355,18.8418 11.1475,19.2848 C11.5595,19.7268 11.7655,20.3298 11.7655,21.0938 C11.7655,21.6228 11.6635,22.0808 11.4605,22.4668 C11.2555,22.8528 10.9645,23.1408 10.5865,23.3298 L10.5865,23.3298 Z M41.5935,15.1378 L41.5935,10.8828 C41.5935,10.3308 41.4775,9.9108 41.2475,9.6228 C41.0155,9.3358 40.6805,9.1928 40.2435,9.1928 C39.6905,9.1928 39.1125,9.4158 38.5075,9.8618 L38.3825,9.3398 L37.1115,9.3398 L37.1115,15.1378 L38.6655,15.1378 L38.6655,10.6448 C38.9455,10.4628 39.2025,10.3718 39.4365,10.3718 C39.6565,10.3718 39.8115,10.4478 39.9025,10.5988 C39.9935,10.7508 40.0385,10.9928 40.0385,11.3248 L40.0385,15.1378 L41.5935,15.1378 Z M34.4685,12.2448 C34.4685,11.6018 34.4055,11.1288 34.2805,10.8258 C34.1565,10.5238 33.9535,10.3718 33.6745,10.3718 C33.3945,10.3718 33.1915,10.5238 33.0665,10.8258 C32.9425,11.1288 32.8795,11.6018 32.8795,12.2448 C32.8795,12.8878 32.9425,13.3588 33.0665,13.6568 C33.1915,13.9558 33.3945,14.1058 33.6745,14.1058 C33.9535,14.1058 34.1565,13.9558 34.2805,13.6568 C34.4055,13.3588 34.4685,12.8878 34.4685,12.2448 L34.4685,12.2448 Z M35.4105,9.9868 C35.8185,10.5158 36.0225,11.2688 36.0225,12.2448 C36.0225,13.2128 35.8185,13.9608 35.4105,14.4898 C35.0025,15.0208 34.4235,15.2848 33.6745,15.2848 C32.9265,15.2848 32.3465,15.0208 31.9375,14.4898 C31.5295,13.9608 31.3255,13.2128 31.3255,12.2448 C31.3255,11.2688 31.5295,10.5158 31.9375,9.9868 C32.3465,9.4568 32.9265,9.1928 33.6745,9.1928 C34.4235,9.1928 35.0025,9.4568 35.4105,9.9868 L35.4105,9.9868 Z M26.5945,15.1378 L30.6225,15.1378 L30.6225,13.9458 L28.2285,13.9458 L30.5765,10.4408 L30.5765,9.3398 L26.6845,9.3398 L26.6845,10.5308 L28.9425,10.5308 L26.5945,14.0368 L26.5945,15.1378 Z M24.2335,13.8328 L24.2335,12.7208 C24.0675,12.6678 23.8715,12.6418 23.6435,12.6418 C23.4255,12.6418 23.2565,12.7118 23.1395,12.8518 C23.0215,12.9908 22.9635,13.1948 22.9635,13.4578 C22.9635,13.6858 23.0105,13.8648 23.1055,13.9968 C23.2005,14.1298 23.3265,14.1948 23.4855,14.1948 C23.7355,14.1948 23.9845,14.0738 24.2335,13.8328 L24.2335,13.8328 Z M23.7695,15.0988 C23.5265,15.2228 23.2815,15.2848 23.0315,15.2848 C22.5625,15.2848 22.1915,15.1328 21.9205,14.8248 C21.6475,14.5198 21.5105,14.0978 21.5105,13.5608 C21.5105,12.9928 21.6775,12.5448 22.0105,12.2158 C22.3435,11.8868 22.7935,11.7228 23.3605,11.7228 C23.5945,11.7228 23.8855,11.7688 24.2335,11.8588 L24.2335,11.3368 C24.2335,10.9438 24.1825,10.6768 24.0815,10.5368 C23.9785,10.3978 23.7885,10.3268 23.5085,10.3268 C23.0535,10.3268 22.4985,10.4478 21.8415,10.6898 L21.8415,9.6568 C22.0595,9.5138 22.3465,9.4008 22.7025,9.3178 C23.0575,9.2348 23.4215,9.1928 23.7915,9.1928 C24.4495,9.1928 24.9265,9.3418 25.2215,9.6408 C25.5165,9.9398 25.6645,10.4178 25.6645,11.0758 L25.6645,15.1378 L24.4615,15.1378 L24.3255,14.6158 C24.1965,14.8128 24.0105,14.9728 23.7695,15.0988 L23.7695,15.0988 Z M20.4105,15.1378 L20.4105,10.8828 C20.4105,10.3378 20.2975,9.9208 20.0705,9.6288 C19.8435,9.3378 19.5175,9.1928 19.0945,9.1928 C18.5655,9.1928 17.9905,9.4228 17.3705,9.8848 C17.1505,9.4228 16.7725,9.1928 16.2365,9.1928 C15.7065,9.1928 15.1385,9.4158 14.5345,9.8618 L14.4085,9.3398 L13.1375,9.3398 L13.1375,15.1378 L14.6925,15.1378 L14.6925,10.6448 C14.9715,10.4628 15.2185,10.3718 15.4295,10.3718 C15.6345,10.3718 15.7805,10.4478 15.8675,10.5988 C15.9545,10.7508 15.9975,10.9888 15.9975,11.3148 L15.9975,15.1378 L17.5515,15.1378 L17.5515,10.9048 L17.5515,10.7698 C17.5515,10.7238 17.5485,10.6828 17.5405,10.6448 C17.8205,10.4628 18.0705,10.3718 18.2895,10.3718 C18.4935,10.3718 18.6385,10.4478 18.7265,10.5988 C18.8125,10.7508 18.8565,10.9888 18.8565,11.3148 L18.8565,15.1378 L20.4105,15.1378 Z M10.0085,12.1318 L9.2925,8.8748 L8.6005,12.1318 L10.0085,12.1318 Z M12.4015,15.1378 L10.6545,15.1378 L10.2455,13.2658 L8.3625,13.2658 L7.9655,15.1378 L6.2975,15.1378 L8.4755,7.2758 L10.2345,7.2758 L12.4015,15.1378 Z M44.0025,30.0058 L44.0025,26.4708 C42.2715,27.4138 39.6485,27.9028 37.0365,27.9028 C34.4245,27.9028 31.8015,27.4138 30.0715,26.4708 L30.0715,30.0058 C30.0715,30.6348 32.4405,32.1098 37.0365,32.1098 C41.6325,32.1098 44.0025,30.6348 44.0025,30.0058 L44.0025,30.0058 Z M44.0025,36.1038 L44.0025,32.6778 C42.2715,33.6208 39.6485,34.1098 37.0365,34.1098 C34.4245,34.1098 31.8015,33.6208 30.0715,32.6778 L30.0715,36.1038 C30.0715,36.7328 32.4405,38.2068 37.0365,38.2068 C41.6325,38.2068 44.0025,36.7328 44.0025,36.1038 L44.0025,36.1038 Z M44.0025,41.5478 L44.0025,38.7758 C42.2715,39.7188 39.6485,40.2068 37.0365,40.2068 C34.4245,40.2068 31.8015,39.7188 30.0715,38.7758 L30.0715,41.5478 C30.0715,42.1768 32.4405,43.6518 37.0365,43.6518 C41.6325,43.6518 44.0025,42.1768 44.0025,41.5478 L44.0025,41.5478 Z M30.0715,23.7988 C30.0715,24.4278 32.4405,25.9028 37.0365,25.9028 C41.6325,25.9028 44.0025,24.4278 44.0025,23.7988 C44.0025,23.1698 41.6325,21.6948 37.0365,21.6948 C32.4405,21.6948 30.0715,23.1698 30.0715,23.7988 L30.0715,23.7988 Z M46.0025,23.7988 L46.0025,41.5478 C46.0025,44.2418 41.4915,45.6518 37.0365,45.6518 C32.5815,45.6518 28.0715,44.2418 28.0715,41.5478 L28.0715,23.7988 C28.0715,21.1048 32.5815,19.6958 37.0365,19.6958 C41.4915,19.6958 46.0025,21.1048 46.0025,23.7988 L46.0025,23.7988 Z M7.7545,43.8918 L27.4365,43.8918 L27.4365,45.8918 L7.7545,45.8918 C4.5815,45.8918 2.0005,43.3108 2.0005,40.1378 L2.0005,7.7548 C2.0005,4.5818 4.5815,1.9998 7.7545,1.9998 L40.1365,1.9998 C43.3095,1.9998 45.8915,4.5818 45.8915,7.7548 L45.8915,20.4548 L43.8915,20.4548 L43.8915,7.7548 C43.8915,5.6848 42.2075,3.9998 40.1365,3.9998 L7.7545,3.9998 C5.6835,3.9998 4.0005,5.6848 4.0005,7.7548 L4.0005,40.1378 C4.0005,42.2078 5.6835,43.8918 7.7545,43.8918 L7.7545,43.8918 Z" id="Amazon-DATABASEAmazon-Aurora-Amazon-RDS-instance_Res_48" fill="#C925D1"></path>
    </g>
</svg>

<svg width="48" height="48" xmlns="http://www.w3.org/2000/svg"><path d="M21.24 25.383c-.25 0-.55-.036-.902-.107a6.442 6.442 0 0 1-.948-.267v1.19c.242.137.54.246.896.33.355.083.711.125 1.066.125.819 0 1.459-.21 1.924-.63.465-.42.698-.99.698-1.707 0-.371-.055-.687-.165-.948-.11-.26-.28-.497-.51-.71a4.68 4.68 0 0 0-.936-.634l-.613-.33c-.332-.18-.558-.347-.675-.5a.924.924 0 0 1-.177-.578c0-.28.093-.5.274-.657.18-.16.43-.24.748-.24.468 0 1.01.114 1.623.342V18.86a4.213 4.213 0 0 0-1.781-.41c-.477 0-.899.093-1.265.279a2.12 2.12 0 0 0-.869.794c-.21.344-.317.747-.317 1.208 0 .5.12.923.363 1.27.242.349.643.674 1.204.977l.61.329c.311.166.532.33.665.493a.915.915 0 0 1 .198.596c0 .318-.093.56-.284.73-.189.172-.465.257-.828.257Zm-4.47-2.95c0-.892-.12-1.548-.358-1.97-.238-.418-.61-.63-1.117-.63h-.66v5.437h.67c.492 0 .858-.214 1.102-.641.24-.43.363-1.085.363-1.97v-.226Zm.872-2.814c.508.666.76 1.64.76 2.927 0 1.294-.248 2.274-.748 2.94-.5.665-1.226.998-2.178.998h-2.428V18.62h2.371c.976 0 1.716.333 2.223.998Zm-7.441 1.475c0-.423-.079-.744-.232-.964-.156-.22-.381-.33-.676-.33h-.738v2.588h.738c.295 0 .52-.11.676-.33.154-.22.232-.54.232-.964Zm.385 2.236 1.588 3.154h-1.633l-1.373-2.916h-.613v2.916H7.002V18.62h2.484c.695 0 1.25.22 1.662.664.412.442.617 1.045.617 1.809 0 .529-.101.987-.305 1.373a1.97 1.97 0 0 1-.874.863Zm31.007-8.192v-4.255c0-.552-.116-.972-.346-1.26-.231-.287-.566-.43-1.004-.43-.553 0-1.13.223-1.736.669l-.124-.522H37.11v5.798h1.555v-4.493c.28-.182.537-.273.77-.273.22 0 .376.076.467.227.09.152.136.394.136.726v3.813h1.554Zm-7.125-2.893c0-.643-.063-1.116-.188-1.42-.123-.301-.327-.453-.605-.453-.28 0-.483.152-.608.454-.124.303-.188.776-.188 1.419s.064 1.114.188 1.412c.124.299.328.449.608.449.279 0 .482-.15.606-.45.125-.297.188-.768.188-1.411Zm.942-2.258c.409.529.613 1.282.613 2.258 0 .968-.205 1.716-.613 2.245-.407.53-.986.795-1.735.795-.748 0-1.328-.264-1.737-.795-.409-.53-.612-1.277-.612-2.245 0-.976.203-1.73.611-2.258.41-.53.99-.794 1.738-.794s1.328.264 1.736.794Zm-8.815 5.15h4.027v-1.191H28.23l2.348-3.505V9.34h-3.893v1.19h2.258l-2.348 3.507v1.1Zm-2.361-1.304V12.72a1.946 1.946 0 0 0-.59-.08c-.218 0-.387.07-.504.21-.119.14-.177.344-.177.607 0 .228.047.407.142.539a.442.442 0 0 0 .38.198c.25 0 .5-.121.748-.362Zm-.465 1.266a1.605 1.605 0 0 1-.737.186c-.47 0-.84-.152-1.111-.46-.273-.305-.41-.727-.41-1.264 0-.568.166-1.016.5-1.345.332-.33.783-.493 1.35-.493.233 0 .524.046.872.136v-.522c0-.393-.05-.66-.152-.8s-.293-.21-.572-.21c-.456 0-1.01.12-1.668.363V9.657c.218-.143.505-.256.861-.34a4.774 4.774 0 0 1 1.09-.124c.657 0 1.134.149 1.43.448.294.299.442.777.442 1.435v4.062h-1.203l-.135-.522a1.445 1.445 0 0 1-.556.483Zm-3.358.039v-4.255c0-.545-.114-.962-.34-1.254-.228-.291-.554-.436-.977-.436-.529 0-1.104.23-1.724.692-.22-.462-.598-.692-1.134-.692-.53 0-1.098.223-1.702.669l-.126-.522h-1.27v5.798h1.555v-4.493c.279-.182.526-.273.737-.273.204 0 .35.076.438.227.086.152.13.39.13.716v3.823h1.554V10.77a.606.606 0 0 0-.011-.125c.28-.182.53-.273.748-.273.204 0 .35.076.438.227.085.152.13.39.13.716v3.823h1.553Zm-10.403-3.006-.715-3.257-.692 3.257h1.407Zm2.394 3.006h-1.747l-.41-1.872H8.364l-.397 1.872h-1.67l2.178-7.862h1.758l2.168 7.862Zm31.6 14.868V26.47c-1.73.943-4.354 1.432-6.966 1.432-2.611 0-5.235-.49-6.965-1.432v3.535c0 .629 2.37 2.104 6.965 2.104 4.596 0 6.966-1.475 6.966-2.104Zm0 6.098v-3.426c-1.73.943-4.354 1.432-6.966 1.432-2.611 0-5.235-.49-6.965-1.432v3.426c0 .629 2.37 2.103 6.965 2.103 4.596 0 6.966-1.474 6.966-2.103Zm0 5.444v-2.772c-1.73.943-4.354 1.43-6.966 1.43-2.611 0-5.235-.487-6.965-1.43v2.772c0 .629 2.37 2.104 6.965 2.104 4.596 0 6.966-1.475 6.966-2.104Zm-13.93-17.75c0 .63 2.369 2.105 6.964 2.105 4.596 0 6.966-1.475 6.966-2.104 0-.63-2.37-2.104-6.966-2.104s-6.965 1.475-6.965 2.104Zm15.93 0v17.75c0 2.694-4.51 4.104-8.966 4.104-4.455 0-8.965-1.41-8.965-4.104v-17.75c0-2.693 4.51-4.102 8.965-4.102 4.456 0 8.966 1.409 8.966 4.103ZM7.755 43.893h19.682v2H7.755A5.76 5.76 0 0 1 2 40.138V7.755A5.761 5.761 0 0 1 7.754 2h32.383a5.762 5.762 0 0 1 5.755 5.755v12.7h-2v-12.7A3.76 3.76 0 0 0 40.136 4H7.755a3.758 3.758 0 0 0-3.753 3.755v32.383a3.758 3.758 0 0 0 3.753 3.754Z" fill="#C925D1" fill-rule="evenodd"/></svg>
